packages/ui-icons/svg/Line/facebook-boxed.svg

<svg viewBox="0 0 1920 1920" version="1.1" xmlns="http://www.w3.org/2000/svg">
    <path d="M1416.01293,791.915394 L1385.10341,1017.53231 L1013.85076,1017.53231 L1013.85076,1807.19154 L788.233843,1807.19154 L788.233843,1017.53231 L449.808461,1017.53231 L449.808461,791.915394 L788.233843,791.915394 L788.233843,585.137485 C788.233843,298.26557 964.440658,112.808461 1237.32432,112.808461 C1354.19389,112.808461 1427.06816,119.012926 1469.14571,124.653349 L1465.87427,338.312573 L1292.37485,338.650999 C1287.6369,338.199765 1174.60282,329.400705 1093.0423,404.305523 C1040.47356,452.474736 1013.85076,521.73913 1013.85076,609.955347 L1013.85076,791.915394 L1416.01293,791.915394 Z M1168.73678,487.896592 C1213.18331,446.495887 1282.44771,451.008226 1287.52409,451.233843 L1576.9906,451.121034 L1583.19506,33.6169213 L1539.651,22.9001175 C1511.6745,16.0188014 1426.05288,0 1237.32432,0 C901.26792,0 675.425382,235.20564 675.425382,585.137485 L675.425382,679.106933 L337,679.106933 L337,1130.34078 L675.425382,1130.34078 L675.425382,1920 L1126.65922,1920 L1126.65922,1130.34078 L1483.35958,1130.34078 L1545.29142,679.106933 L1126.65922,679.106933 L1126.65922,609.955347 C1126.65922,555.017626 1140.87309,513.955347 1168.73678,487.896592 L1168.73678,487.896592 Z" stroke="none" stroke-width="1" fill-rule="evenodd"/>
</svg>

<svg viewBox="0 0 1920 1920" version="1.1" xmlns="http://www.w3.org/2000/svg">
    <path d="M1416.013 791.915l-30.91 225.617h-371.252v789.66H788.234v-789.66H449.808V791.915h338.426V585.137c0-286.871 176.207-472.329 449.09-472.329 116.87 0 189.744 6.205 231.822 11.845l-3.272 213.66-173.5.338c-4.737-.451-117.771-9.25-199.332 65.655-52.568 48.169-79.191 117.433-79.191 205.65v181.96h402.162zm-247.276-304.018c44.446-41.401 113.71-36.889 118.787-36.663l289.467-.113 6.204-417.504-43.544-10.717C1511.675 16.02 1426.053 0 1237.324 0 901.268 0 675.425 235.206 675.425 585.137v93.97H337v451.234h338.425V1920h451.234v-789.66h356.7l61.932-451.233H1126.66v-69.152c0-54.937 14.214-96 42.078-122.058z" stroke="none" stroke-width="1" fill-rule="evenodd"/>
</svg>
